;generated by ffslicer 1.14.0 09/15/18 20:59:32
;start gcode
M118 X27.15 Y65.50 Z23.00 T0
M140 S50 T0
M104 S215 T0
M104 S0 T1
M107
G90
G28
M132 X Y Z A B
G1 Z50.00 F400
G161 X Y F3300
M7 T0
M6 T0
M651
M907 X100 Y100 Z40 A80 B20
M108 T0
G1 X-3.41 Y-65.47 F4800
;preExtrude:0.20
;preExtruder0
M108 T0
G1 Z.20 F400
G1 X-3.41 Y-65.47 F4800
G1 X-1.96 Y-65.13 E.2160 F1200
G1 X-1.81 Y-65.05 E.2406
G1 X-.58 Y-65.39 E.4257
G1 X.34 Y-65.50 E.5600
G1 X21.17 Y-65.50 E3.5807
G1 X22.74 Y-65.24 E3.8115
G1 X24.29 Y-64.55 E4.0575
G1 X24.90 Y-64.12 E4.1657
G1 X25.91 Y-63.05 E4.3791
G1 X26.77 Y-61.52 E4.6336
G1 X27.08 Y-60.22 E4.8274
G1 X27.15 Y-58.92 E5.0162
G1 X27.15 Y26.49 E17.4019
;raft
;layer:0.28
;support-start
;brim
M106
G1 E16.1019 F1800
G1 Z.28 F400
G1 X-25.95 Y-59.92 F4200
G1 E17.4019 F1800
G1 X-25.95 Y-59.92 F4200
G1 X-25.70 Y-61.30 E17.4731 F1200
G1 X-25.61 Y-61.56 E17.4870
G1 X-25.14 Y-62.43 E17.5372
G1 X-24.31 Y-63.43 E17.6032
G1 X-24.08 Y-63.59 E17.6174
G1 X-22.94 Y-64.21 E17.6833
G1 X-21.61 Y-64.50 E17.7524
G1 X-19.97 Y-64.50 E17.8356
G1 X-18.52 Y-64.50 E17.9092
G1 X-8.52 Y-64.50 E18.4167
G1 X-5.19 Y-64.50 E18.5857
G1 X-4.80 Y-64.52 E18.6056
G1 X-3.54 Y-64.48 E18.6695
G1 X-2.31 Y-64.18 E18.7338
G1 X-1.82 Y-63.93 E18.7617
G1 X-1.52 Y-64.09 E18.7790
G1 X-.39 Y-64.41 E18.8386
G1 X.39 Y-64.50 E18.8784
G1 X1.29 Y-64.50 E18.9241
G1 X11.29 Y-64.50 E19.4317
G1 X21.08 Y-64.50 E19.9286
G1 X21.29 Y-64.46 E19.9394
G1 X22.45 Y-64.27 E19.9991
G1 X23.79 Y-63.68 E20.0734
G1 X24.24 Y-63.36 E20.1014
G1 X25.10 Y-62.45 E20.1650
G1 X25.83 Y-61.15 E20.2406
G1 X26.09 Y-60.07 E20.2970
G1 X26.15 Y-58.90 E20.3565
G1 X26.15 Y59.60 E26.3709
G1 X26.01 Y60.61 E26.4227
G1 X25.56 Y61.95 E26.4944
G1 X24.76 Y63.08 E26.5647
G1 X24.53 Y63.29 E26.5805
G1 X23.30 Y64.16 E26.6570
G1 X22.90 Y64.33 E26.6790
G1 X21.92 Y64.60 E26.7306
G1 X21.12 Y64.70 E26.7716
G1 X.40 Y64.70 E27.8232
G1 X-.98 Y64.47 E27.8942
G1 X-2.32 Y63.87 E27.9687
G1 X-2.87 Y63.46 E28.0035
G1 X-3.64 Y62.61 E28.0618
G1 X-3.90 Y62.17 E28.0877
G1 X-4.37 Y62.20 E28.1116
G1 X-20.79 Y62.20 E28.9450
G1 X-22.47 Y62.03 E29.0307
G1 X-22.56 Y62.01 E29.0354
G1 X-23.61 Y61.55 E29.0936
G1 X-24.66 Y60.75 E29.1606
G1 X-24.89 Y60.46 E29.1793
G1 X-25.58 Y59.30 E29.2478
G1 X-25.70 Y58.94 E29.2671
G1 X-25.94 Y57.82 E29.3252
G1 X-25.95 Y57.59 E29.3369
G1 X-25.95 Y-59.92 E35.3011
G1 E34.0011 F1800
G1 X-25.95 Y-59.92 F4200
G1 E35.3011 F1800
G1 X-25.95 Y-59.92 F4200
G1 X-25.70 Y-61.30 E35.3723 F1200
G1 X-25.61 Y-61.56 E35.3863
G1 X-25.14 Y-62.43 E35.4365
G1 X-24.31 Y-63.43 E35.5024
G1 X-24.08 Y-63.59 E35.5167
G1 X-22.94 Y-64.21 E35.5825
G1 X-21.61 Y-64.50 E35.6516
G1 X-19.97 Y-64.50 E35.7348
G1 X-5.19 Y-64.50 E36.4850
G1 X-4.80 Y-64.52 E36.5048
G1 X-3.54 Y-64.48 E36.5688
G1 X-2.31 Y-64.18 E36.6331
G1 X-1.82 Y-63.93 E36.6610
G1 X-1.52 Y-64.09 E36.6782
G1 X-.39 Y-64.41 E36.7379
G1 X.39 Y-64.50 E36.7777
G1 X21.08 Y-64.50 E37.8278
G1 X22.45 Y-64.27 E37.8983
G1 X23.79 Y-63.68 E37.9727
G1 X24.24 Y-63.36 E38.0007
G1 X25.10 Y-62.45 E38.0642
G1 X25.83 Y-61.15 E38.1399
G1 X26.09 Y-60.07 E38.1963
G1 X26.15 Y-58.90 E38.2557
G1 X26.15 Y59.60 E44.2702
G1 X26.01 Y60.61 E44.3220
G1 X25.56 Y61.95 E44.3937
G1 X24.76 Y63.08 E44.4640
G1 X24.53 Y63.29 E44.4798
G1 X23.30 Y64.16 E44.5563
G1 X22.90 Y64.33 E44.5783
G1 X21.92 Y64.60 E44.6299
G1 X21.12 Y64.70 E44.6708
G1 X.40 Y64.70 E45.7225
G1 X-.98 Y64.47 E45.7935
G1 X-2.32 Y63.87 E45.8680
G1 X-2.87 Y63.46 E45.9028
G1 X-3.64 Y62.61 E45.9610
G1 X-3.90 Y62.17 E45.9870
G1 X-4.37 Y62.20 E46.0109
G1 X-20.79 Y62.20 E46.8443
G1 X-22.47 Y62.03 E46.9300
G1 X-22.56 Y62.01 E46.9346
G1 X-23.61 Y61.55 E46.9928
G1 X-24.66 Y60.75 E47.0598
G1 X-24.89 Y60.46 E47.0786
G1 X-25.58 Y59.30 E47.1471
G1 X-25.70 Y58.94 E47.1664
G1 X-25.94 Y57.82 E47.2245
G1 X-25.95 Y57.59 E47.2362
G1 X-25.95 Y-59.92 E53.2004
G1 E51.9004 F1800
G1 X-25.55 Y-59.92 F4200
G1 E53.2004 F1800
G1 X-25.55 Y-59.92 F4200
G1 X-25.32 Y-61.20 E53.2664 F1200
G1 X-25.25 Y-61.38 E53.2762
G1 X-24.83 Y-62.18 E53.3221
G1 X-24.04 Y-63.13 E53.3848
G1 X-23.89 Y-63.24 E53.3942
G1 X-22.80 Y-63.84 E53.4574
G1 X-21.55 Y-64.11 E53.5223
G1 X-19.97 Y-64.10 E53.6025
G1 X-5.19 Y-64.10 E54.3527
G1 X-4.82 Y-64.12 E54.3715
G1 X-3.61 Y-64.08 E54.4329
G1 X-2.46 Y-63.81 E54.4929
G1 X-1.81 Y-63.47 E54.5301
G1 X-1.41 Y-63.71 E54.5538
G1 X-.34 Y-64.01 E54.6102
G1 X.41 Y-64.10 E54.6485
G1 X21.08 Y-64.10 E55.6976
G1 X22.35 Y-63.88 E55.7630
G1 X23.62 Y-63.31 E55.8337
G1 X23.95 Y-63.08 E55.8541
G1 X24.76 Y-62.24 E55.9133
G1 X25.46 Y-61.00 E55.9856
G1 X25.69 Y-60.01 E56.0372
G1 X25.75 Y-58.90 E56.0936
G1 X25.75 Y59.60 E62.1081
G1 X25.62 Y60.53 E62.1557
G1 X25.20 Y61.77 E62.2222
G1 X24.45 Y62.83 E62.2881
G1 X24.30 Y62.96 E62.2982
G1 X23.12 Y63.80 E62.3717
G1 X22.79 Y63.95 E62.3901
G1 X21.88 Y64.21 E62.4381
G1 X21.10 Y64.30 E62.4780
G1 X.40 Y64.30 E63.5286
G1 X-.89 Y64.08 E63.5950
G1 X-2.15 Y63.51 E63.6652
G1 X-2.58 Y63.18 E63.6927
G1 X-3.31 Y62.39 E63.7473
G1 X-3.46 Y62.15 E63.7617
G1 X-3.67 Y61.76 E63.7842
G1 X-4.37 Y61.80 E63.8197
G1 X-20.79 Y61.80 E64.6531
G1 X-22.40 Y61.64 E64.7353
G1 X-23.40 Y61.21 E64.7905
G1 X-24.38 Y60.47 E64.8528
G1 X-24.55 Y60.25 E64.8669
G1 X-25.21 Y59.15 E64.9321
G1 X-25.31 Y58.86 E64.9476
G1 X-25.54 Y57.80 E65.0027
G1 X-25.55 Y57.59 E65.0134
G1 X-25.55 Y-59.92 E70.9776
G1 E69.6776 F1800
G1 X-25.15 Y-59.92 F4200
G1 E70.9776 F1800
G1 X-25.15 Y-59.92 F4200
G1 X-24.93 Y-61.09 E71.0380 F1200
G1 X-24.90 Y-61.19 E71.0433
G1 X-24.52 Y-61.93 E71.0855
G1 X-23.77 Y-62.84 E71.1454
G1 X-23.70 Y-62.89 E71.1497
G1 X-22.69 Y-63.46 E71.2086
G1 X-21.53 Y-63.71 E71.2688
G1 X-19.97 Y-63.70 E71.3480
G1 X-5.19 Y-63.70 E72.0981
G1 X-4.83 Y-63.72 E72.1164
G1 X-3.70 Y-63.69 E72.1738
G1 X-2.60 Y-63.44 E72.2311
G1 X-1.93 Y-63.08 E72.2697
G1 X-1.82 Y-62.98 E72.2772
G1 X-1.30 Y-63.32 E72.3087
G1 X-.30 Y-63.62 E72.3617
G1 X.43 Y-63.70 E72.3990
G1 X21.08 Y-63.70 E73.4471
G1 X22.26 Y-63.50 E73.5079
G1 X23.46 Y-62.95 E73.5749
G1 X23.66 Y-62.80 E73.5875
G1 X24.43 Y-62.01 E73.6435
G1 X25.10 Y-60.83 E73.7124
G1 X25.29 Y-59.95 E73.7581
G1 X25.35 Y-58.90 E73.8115
G1 X25.35 Y59.60 E79.8259
G1 X25.24 Y60.40 E79.8669
G1 X24.84 Y61.59 E79.9307
G1 X24.14 Y62.57 E79.9918
G1 X24.07 Y62.64 E79.9968
G1 X22.93 Y63.45 E80.0678
G1 X22.68 Y63.56 E80.0816
G1 X21.83 Y63.81 E80.1266
G1 X21.08 Y63.90 E80.1649
G1 X.40 Y63.90 E81.2145
G1 X-.79 Y63.69 E81.2759
G1 X-1.98 Y63.14 E81.3424
G1 X-2.29 Y62.91 E81.3620
G1 X-2.97 Y62.17 E81.4130
G1 X-3.11 Y61.97 E81.4254
G1 X-3.45 Y61.31 E81.4631
G1 X-3.82 Y61.38 E81.4822
G1 X-4.38 Y61.40 E81.5106
G1 X-20.79 Y61.40 E82.3435
G1 X-22.31 Y61.25 E82.4210
G1 X-23.19 Y60.87 E82.4697
G1 X-24.09 Y60.19 E82.5270
G1 X-24.20 Y60.04 E82.5364
G1 X-24.85 Y58.99 E82.5991
G1 X-24.92 Y58.77 E82.6108
G1 X-25.14 Y57.77 E82.6628
G1 X-25.15 Y57.59 E82.6719
G1 X-25.15 Y-59.92 E88.6361
G1 E87.3361 F1800
G1 X-24.75 Y-59.92 F4200
G1 E88.6361 F1800
G1 X-24.75 Y-59.92 F4200
G1 X-24.54 Y-61.02 E88.6930 F1200
G1 X-24.21 Y-61.67 E88.7300
G1 X-23.50 Y-62.55 E88.7873
G1 X-22.57 Y-63.08 E88.8417
G1 X-21.50 Y-63.31 E88.8972
G1 X-19.97 Y-63.30 E88.9749
G1 X-5.18 Y-63.30 E89.7255
G1 X-4.83 Y-63.32 E89.7433
G1 X-3.79 Y-63.30 E89.7961
G1 X-2.75 Y-63.06 E89.8503
G1 X-2.18 Y-62.77 E89.8828
G1 X-1.83 Y-62.49 E89.9055
G1 X-1.15 Y-62.95 E89.9472
G1 X-.25 Y-63.22 E89.9949
G1 X.45 Y-63.30 E90.0306
G1 X21.08 Y-63.30 E91.0777
G1 X22.16 Y-63.11 E91.1334
G1 X23.26 Y-62.60 E91.1949
G1 X23.38 Y-62.52 E91.2022
G1 X24.10 Y-61.79 E91.2543
G1 X24.73 Y-60.69 E91.3186
G1 X24.90 Y-59.93 E91.3581
G1 X24.95 Y-58.90 E91.4105
G1 X24.95 Y59.60 E97.4249
G1 X24.86 Y60.28 E97.4597
G1 X24.48 Y61.42 E97.5207
G1 X23.83 Y62.31 E97.5767
G1 X22.76 Y63.08 E97.6436
G1 X22.56 Y63.18 E97.6549
G1 X21.78 Y63.41 E97.6962
G1 X21.06 Y63.50 E97.7330
G1 X.40 Y63.50 E98.7816
G1 X-.69 Y63.30 E98.8379
G1 X-1.79 Y62.79 E98.8994
G1 X-2.00 Y62.63 E98.9128
G1 X-2.64 Y61.95 E98.9602
G1 X-2.75 Y61.78 E98.9705
G1 X-3.23 Y60.86 E99.0232
G1 X-3.83 Y60.98 E99.0542
G1 X-4.40 Y61.00 E99.0831
G1 X-20.79 Y61.00 E99.9150
G1 X-22.21 Y60.86 E99.9874
G1 X-22.98 Y60.53 E100.0300
G1 X-23.81 Y59.90 E100.0829
G1 X-23.86 Y59.83 E100.0872
G1 X-24.48 Y58.83 E100.1469
G1 X-24.53 Y58.69 E100.1545
G1 X-24.74 Y57.75 E100.2034
G1 X-24.75 Y57.59 E100.2115
G1 X-24.75 Y-59.92 E106.1757
G1 E104.8757 F1800
G1 X-24.35 Y-59.92 F4200
G1 E106.1757 F1800
G1 X-24.35 Y-59.92 F4200
G1 X-24.15 Y-60.91 E106.2270 F1200
G1 X-23.88 Y-61.44 E106.2572
G1 X-23.25 Y-62.23 E106.3085
G1 X-22.42 Y-62.70 E106.3569
G1 X-21.44 Y-62.91 E106.4077
G1 X-19.98 Y-62.90 E106.4818
G1 X-5.18 Y-62.90 E107.2330
G1 X-4.84 Y-62.92 E107.2503
G1 X-3.88 Y-62.91 E107.2990
G1 X-2.91 Y-62.70 E107.3494
G1 X-2.43 Y-62.45 E107.3769
G1 X-1.85 Y-61.99 E107.4144
G1 X-1.00 Y-62.58 E107.4670
G1 X-.20 Y-62.82 E107.5094
G1 X.46 Y-62.90 E107.5431
G1 X21.08 Y-62.90 E108.5897
G1 X22.06 Y-62.72 E108.6402
G1 X23.09 Y-62.24 E108.6979
G1 X23.76 Y-61.57 E108.7460
G1 X24.35 Y-60.54 E108.8063
G1 X24.50 Y-59.91 E108.8391
G1 X24.55 Y-58.90 E108.8904
G1 X24.55 Y59.60 E114.9049
G1 X24.47 Y60.16 E114.9336
G1 X24.14 Y61.22 E114.9900
G1 X23.55 Y62.03 E115.0408
G1 X22.55 Y62.74 E115.1031
G1 X22.44 Y62.80 E115.1094
G1 X21.73 Y63.02 E115.1472
G1 X21.04 Y63.10 E115.1824
G1 X.40 Y63.10 E116.2300
G1 X-.59 Y62.92 E116.2811
G1 X-1.62 Y62.43 E116.3390
G1 X-1.71 Y62.36 E116.3447
G1 X-2.31 Y61.73 E116.3889
G1 X-2.40 Y61.60 E116.3969
G1 X-2.92 Y60.60 E116.4541
G1 X-3.00 Y60.40 E116.4651
G1 X-3.85 Y60.58 E116.5092
G1 X-4.41 Y60.60 E116.5376
G1 X-20.79 Y60.60 E117.3690
G1 X-22.12 Y60.47 E117.4368
G1 X-22.77 Y60.19 E117.4727
G1 X-23.52 Y59.62 E117.5205
G1 X-24.11 Y58.69 E117.5764
G1 X-24.14 Y58.60 E117.5812
G1 X-24.34 Y57.73 E117.6265
G1 X-24.35 Y57.59 E117.6337
G1 X-24.35 Y-59.92 E123.5979
G1 E122.2979 F1800
G1 X-23.95 Y-59.92 F4200
G1 E123.5979 F1800
G1 X-23.95 Y-59.92 F4200
G1 X-23.77 Y-60.80 E123.6435 F1200
G1 X-23.57 Y-61.20 E123.6662
G1 X-22.99 Y-61.93 E123.7135
G1 X-22.27 Y-62.33 E123.7553
G1 X-21.39 Y-62.52 E123.8010
G1 X-19.98 Y-62.50 E123.8726
G1 X-5.17 Y-62.50 E124.6242
G1 X-4.84 Y-62.52 E124.6410
G1 X-3.96 Y-62.52 E124.6857
G1 X-3.08 Y-62.33 E124.7314
G1 X-2.68 Y-62.14 E124.7539
G1 X-1.95 Y-61.56 E124.8012
G1 X-1.84 Y-61.48 E124.8081
G1 X-1.74 Y-61.58 E124.8153
G1 X-.84 Y-62.21 E124.8710
G1 X-.16 Y-62.42 E124.9071
G1 X.48 Y-62.50 E124.9399
G1 X21.08 Y-62.50 E125.9854
G1 X21.93 Y-62.34 E126.0293
G1 X22.88 Y-61.90 E126.0825
G1 X23.46 Y-61.31 E126.1245
G1 X23.99 Y-60.37 E126.1792
G1 X24.10 Y-59.88 E126.2047
G1 X24.15 Y-58.90 E126.2545
G1 X24.15 Y59.60 E132.2690
G1 X24.09 Y60.04 E132.2915
G1 X23.79 Y61.02 E132.3436
G1 X23.26 Y61.76 E132.3898
G1 X22.32 Y62.42 E132.4481
G1 X21.69 Y62.62 E132.4816
G1 X21.02 Y62.70 E132.5158
G1 X.40 Y62.70 E133.5624
G1 X-.49 Y62.53 E133.6084
G1 X-1.42 Y62.08 E133.6608
G1 X-1.98 Y61.49 E133.7021
G1 X-2.04 Y61.41 E133.7072
G1 X-2.54 Y60.47 E133.7612
G1 X-2.61 Y60.08 E133.7813
G1 X-2.63 Y59.77 E133.7971
G1 X-3.08 Y60.01 E133.8230
G1 X-3.86 Y60.18 E133.8635
G1 X-4.42 Y60.20 E133.8920
G1 X-20.79 Y60.20 E134.7228
G1 X-22.03 Y60.08 E134.7860
G1 X-22.56 Y59.85 E134.8154
G1 X-23.22 Y59.36 E134.8571
G1 X-23.75 Y58.50 E134.9084
G1 X-23.94 Y57.70 E134.9501
G1 X-23.95 Y57.59 E134.9557
G1 X-23.95 Y-59.92 E140.9199
G1 E139.6199 F1800
G1 X-23.55 Y-59.92 F4200
G1 E140.9199 F1800
G1 X-23.55 Y-59.92 F4200
G1 X-23.38 Y-60.71 E140.9609 F1200
G1 X-23.25 Y-60.95 E140.9748
G1 X-22.74 Y-61.62 E141.0175
G1 X-22.13 Y-61.96 E141.0530
G1 X-21.36 Y-62.12 E141.0929
G1 X-19.99 Y-62.10 E141.1625
G1 X-5.16 Y-62.10 E141.9152
G1 X-4.84 Y-62.12 E141.9314
G1 X-3.96 Y-62.12 E141.9761
G1 X-3.16 Y-61.94 E142.0177
G1 X-2.92 Y-61.82 E142.0313
G1 X-2.26 Y-61.30 E142.0740
G1 X-1.92 Y-60.71 E142.1085
G1 X-1.91 Y-60.68 E142.1101
G1 X-1.51 Y-61.25 E142.1455
G1 X-.68 Y-61.85 E142.1975
G1 X-.11 Y-62.03 E142.2278
G1 X.50 Y-62.10 E142.2590
G1 X21.08 Y-62.10 E143.3035
G1 X21.80 Y-61.96 E143.3407
G1 X22.66 Y-61.57 E143.3887
G1 X23.15 Y-61.06 E143.4246
G1 X23.63 Y-60.20 E143.4745
G1 X23.70 Y-59.86 E143.4922
G1 X23.75 Y-58.90 E143.5410
G1 X23.75 Y59.60 E149.5554
G1 X23.71 Y59.92 E149.5718
G1 X23.44 Y60.83 E149.6200
G1 X22.97 Y61.48 E149.6607
G1 X22.12 Y62.07 E149.7132
G1 X21.60 Y62.23 E149.7408
G1 X21.00 Y62.30 E149.7715
G1 X.40 Y62.30 E150.8170
G1 X-.36 Y62.15 E150.8563
G1 X-1.20 Y61.75 E150.9036
G1 X-1.69 Y61.22 E150.9402
G1 X-2.16 Y60.35 E150.9904
G1 X-2.21 Y60.06 E151.0053
G1 X-2.27 Y59.08 E151.0552
G1 X-2.27 Y58.89 E151.0648
G1 X-2.60 Y59.30 E151.0915
G1 X-3.17 Y59.62 E151.1247
G1 X-3.87 Y59.78 E151.1611
G1 X-4.44 Y59.80 E151.1901
G1 X-20.79 Y59.80 E152.0199
G1 X-21.93 Y59.69 E152.0780
G1 X-22.33 Y59.52 E152.1001
G1 X-22.92 Y59.09 E152.1372
G1 X-23.40 Y58.32 E152.1832
G1 X-23.55 Y57.64 E152.2185
G1 X-23.55 Y57.59 E152.2211
G1 X-23.55 Y-59.92 E158.1853
G1 E156.8853 F1800
G1 X-23.15 Y-59.92 F4200
G1 E158.1853 F1800
G1 X-23.15 Y-59.92 F4200
G1 X-22.99 Y-60.60 E158.2207 F1200
G1 X-22.93 Y-60.71 E158.2271
G1 X-22.47 Y-61.32 E158.2659
G1 X-21.99 Y-61.58 E158.2936
G1 X-21.34 Y-61.72 E158.3273
G1 X-19.99 Y-61.70 E158.3959
G1 X-5.15 Y-61.70 E159.1491
G1 X-4.84 Y-61.72 E159.1648
G1 X-3.96 Y-61.72 E159.2095
G1 X-3.28 Y-61.56 E159.2450
G1 X-3.17 Y-61.50 E159.2513
G1 X-2.56 Y-61.04 E159.2901
G1 X-2.30 Y-60.57 E159.3174
G1 X-2.16 Y-59.95 E159.3496
G1 X-2.16 Y57.58 E165.3149
G1 X-2.32 Y58.26 E165.3503
G1 X-2.37 Y58.37 E165.3564
G1 X-2.83 Y58.98 E165.3952
G1 X-3.29 Y59.24 E165.4220
G1 X-3.89 Y59.38 E165.4533
G1 X-4.45 Y59.40 E165.4817
G1 X-20.79 Y59.40 E166.3111
G1 X-21.84 Y59.31 E166.3646
G1 X-22.10 Y59.20 E166.3789
G1 X-22.63 Y58.82 E166.4120
G1 X-23.04 Y58.14 E166.4523
G1 X-23.15 Y57.59 E166.4807
G1 X-23.15 Y-59.92 E172.4450
G1 E171.1450 F1800
G1 X-22.75 Y-59.92 F4200
G1 E172.4450 F1800
G1 X-22.75 Y-59.92 F4200
G1 X-22.61 Y-60.47 E172.4738 F1200
G1 X-22.21 Y-61.01 E172.5079
G1 X-21.87 Y-61.20 E172.5277
G1 X-21.34 Y-61.32 E172.5552
G1 X-20.00 Y-61.30 E172.6233
G1 X-5.14 Y-61.30 E173.3775
G1 X-4.84 Y-61.32 E173.3927
G1 X-3.96 Y-61.32 E173.4374
G1 X-3.40 Y-61.18 E173.4667
G1 X-2.86 Y-60.78 E173.5008
G1 X-2.68 Y-60.45 E173.5199
G1 X-2.56 Y-59.95 E173.5460
G1 X-2.56 Y57.58 E179.5112
G1 X-2.70 Y58.13 E179.5400
G1 X-3.10 Y58.68 E179.5746
G1 X-3.41 Y58.86 E179.5927
G1 X-3.90 Y58.98 E179.6184
G1 X-4.47 Y59.00 E179.6473
G1 X-20.79 Y59.00 E180.4756
G1 X-21.75 Y58.92 E180.5245
G1 X-21.87 Y58.86 E180.5313
G1 X-22.32 Y58.56 E180.5588
G1 X-22.67 Y57.98 E180.5932
G1 X-22.75 Y57.59 E180.6134
G1 X-22.75 Y-59.92 E186.5776
G1 E185.2776 F1800
G1 X-22.35 Y-59.92 F4200
G1 E186.5776 F1800
G1 X-22.35 Y-59.92 F4200
G1 X-22.25 Y-60.31 E186.5980 F1200
G1 X-21.93 Y-60.73 E186.6248
G1 X-21.78 Y-60.81 E186.6334
G1 X-21.35 Y-60.92 E186.6560
G1 X-20.06 Y-60.91 E186.7214
G1 X-20.04 Y-60.90 E186.7226
G1 X-5.12 Y-60.90 E187.4798
G1 X-4.84 Y-60.92 E187.4941
G1 X-3.96 Y-60.92 E187.5388
G1 X-3.56 Y-60.81 E187.5598
G1 X-3.15 Y-60.50 E187.5859
G1 X-3.07 Y-60.35 E187.5945
G1 X-2.96 Y-59.93 E187.6166
G1 X-2.96 Y57.58 E193.5808
G1 X-3.06 Y57.98 E193.6017
G1 X-3.38 Y58.39 E193.6281
G1 X-3.52 Y58.47 E193.6363
G1 X-3.92 Y58.58 E193.6574
G1 X-4.48 Y58.60 E193.6858
G1 X-20.79 Y58.60 E194.5136
G1 X-21.66 Y58.53 E194.5579
G1 X-22.02 Y58.30 E194.5796
G1 X-22.29 Y57.85 E194.6062
G1 X-22.35 Y57.59 E194.6198
G1 X-22.35 Y-59.92 E200.5840
G1 E199.2840 F1800
G1 X-21.95 Y-59.92 F4200
G1 E200.5840 F1800
G1 X-21.95 Y-59.92 F4200
G1 X-21.89 Y-60.13 E200.5951 F1200
G1 X-21.67 Y-60.43 E200.6140
G1 X-21.35 Y-60.52 E200.6308
G1 X-20.12 Y-60.51 E200.6933
G1 X-20.08 Y-60.50 E200.6954
G1 X-5.11 Y-60.50 E201.4552
G1 X-4.84 Y-60.52 E201.4689
G1 X-3.96 Y-60.52 E201.5136
G1 X-3.75 Y-60.46 E201.5246
G1 X-3.45 Y-60.24 E201.5435
G1 X-3.36 Y-59.93 E201.5599
G1 X-3.36 Y57.58 E207.5241
G1 X-3.42 Y57.79 E207.5352
G1 X-3.64 Y58.09 E207.5541
G1 X-3.93 Y58.18 E207.5695
G1 X-4.49 Y58.20 E207.5979
G1 X-20.79 Y58.20 E208.4252
G1 X-21.55 Y58.14 E208.4639
G1 X-21.75 Y58.00 E208.4763
G1 X-21.94 Y57.66 E208.4961
G1 X-21.95 Y57.58 E208.5002
G1 X-21.95 Y-59.92 E214.4639
G1 E213.1639 F1800
G1 X-21.55 Y-59.92 F4200
G1 E214.4639 F1800
G1 X-21.55 Y-59.92 F4200
G1 X-21.44 Y-60.10 E214.4746 F1200
G1 X-21.35 Y-60.12 E214.4793
G1 X-20.18 Y-60.11 E214.5386
