;generated by ffslicer 1.14.0 09/15/18 17:06:43
;start gcode
M118 X27.15 Y65.59 Z23.00 T0
M140 S50 T0
M104 S215 T0
M104 S0 T1
M107
G90
G28
M132 X Y Z A B
G1 Z50.00 F400
G161 X Y F3300
M7 T0
M6 T0
M651
M907 X100 Y100 Z40 A80 B20
M108 T0
G1 X-2.85 Y-65.51 F4800
;preExtrude:0.20
;preExtruder0
M108 T0
G1 Z.20 F400
G1 X-2.85 Y-65.51 F4800
G1 X-1.82 Y-65.14 E.1587 F1200
G1 X-.58 Y-65.48 E.3452
G1 X.34 Y-65.59 E.4795
G1 X21.17 Y-65.59 E3.5002
G1 X22.74 Y-65.33 E3.7309
G1 X24.29 Y-64.64 E3.9770
G1 X24.90 Y-64.21 E4.0852
G1 X25.91 Y-63.14 E4.2986
G1 X26.77 Y-61.61 E4.5531
G1 X27.08 Y-60.31 E4.7469
G1 X27.15 Y-59.01 E4.9357
G1 X27.15 Y26.95 E17.4011
;raft
;layer:0.28
;support-start
;brim
M106
G1 E16.1011 F1800
G1 Z.28 F400
G1 X-25.96 Y-60.01 F4200
G1 E17.4011 F1800
G1 X-25.96 Y-60.01 F4200
G1 X-25.71 Y-61.39 E17.4723 F1200
G1 X-25.62 Y-61.65 E17.4863
G1 X-25.15 Y-62.53 E17.5369
G1 X-24.32 Y-63.52 E17.6025
G1 X-24.09 Y-63.68 E17.6167
G1 X-22.95 Y-64.31 E17.6828
G1 X-21.58 Y-64.60 E17.7539
G1 X-19.99 Y-64.59 E17.8346
G1 X-18.53 Y-64.59 E17.9087
G1 X-8.53 Y-64.59 E18.4162
G1 X-5.24 Y-64.59 E18.5832
G1 X-4.69 Y-64.61 E18.6111
G1 X-3.05 Y-64.52 E18.6945
G1 X-1.95 Y-64.12 E18.7539
G1 X-1.80 Y-64.03 E18.7628
G1 X-1.52 Y-64.18 E18.7789
G1 X-.39 Y-64.50 E18.8385
G1 X.39 Y-64.59 E18.8784
G1 X1.28 Y-64.59 E18.9235
G1 X11.28 Y-64.59 E19.4311
G1 X21.08 Y-64.59 E19.9285
G1 X21.28 Y-64.56 E19.9388
G1 X22.45 Y-64.36 E19.9990
G1 X23.79 Y-63.77 E20.0733
G1 X24.24 Y-63.45 E20.1013
G1 X25.10 Y-62.54 E20.1649
G1 X25.83 Y-61.24 E20.2406
G1 X26.09 Y-60.16 E20.2969
G1 X26.15 Y-58.99 E20.3564
G1 X26.15 Y59.51 E26.3709
G1 X26.01 Y60.52 E26.4226
G1 X25.56 Y61.86 E26.4944
G1 X24.76 Y62.99 E26.5646
G1 X24.53 Y63.20 E26.5804
G1 X23.30 Y64.07 E26.6569
G1 X22.90 Y64.24 E26.6790
G1 X21.92 Y64.51 E26.7306
G1 X21.12 Y64.61 E26.7715
G1 X.40 Y64.61 E27.8231
G1 X-.98 Y64.38 E27.8941
G1 X-2.32 Y63.78 E27.9687
G1 X-2.87 Y63.37 E28.0035
G1 X-3.64 Y62.52 E28.0617
G1 X-3.90 Y62.08 E28.0876
G1 X-4.37 Y62.11 E28.1115
G1 X-20.79 Y62.11 E28.9449
G1 X-22.46 Y61.94 E29.0301
G1 X-22.75 Y61.85 E29.0455
G1 X-23.72 Y61.39 E29.1000
G1 X-24.76 Y60.55 E29.1679
G1 X-25.41 Y59.57 E29.2276
G1 X-25.88 Y58.31 E29.2958
G1 X-25.96 Y57.48 E29.3381
G1 X-25.96 Y-60.01 E35.3013
G1 E34.0013 F1800
G1 X-25.96 Y-60.01 F4200
G1 E35.3013 F1800
G1 X-25.96 Y-60.01 F4200
G1 X-25.71 Y-61.39 E35.3725 F1200
G1 X-25.62 Y-61.65 E35.3865
G1 X-25.15 Y-62.53 E35.4371
G1 X-24.32 Y-63.52 E35.5027
G1 X-24.09 Y-63.68 E35.5169
G1 X-22.95 Y-64.31 E35.5830
G1 X-21.58 Y-64.60 E35.6541
G1 X-19.99 Y-64.59 E35.7348
G1 X-5.24 Y-64.59 E36.4834
G1 X-4.69 Y-64.61 E36.5114
G1 X-3.05 Y-64.52 E36.5947
G1 X-1.95 Y-64.12 E36.6541
G1 X-1.80 Y-64.03 E36.6630
G1 X-1.52 Y-64.18 E36.6791
G1 X-.39 Y-64.50 E36.7387
G1 X.39 Y-64.59 E36.7786
G1 X21.08 Y-64.59 E37.8287
G1 X22.45 Y-64.36 E37.8992
G1 X23.79 Y-63.77 E37.9735
G1 X24.24 Y-63.45 E38.0016
G1 X25.10 Y-62.54 E38.0651
G1 X25.83 Y-61.24 E38.1408
G1 X26.09 Y-60.16 E38.1972
G1 X26.15 Y-58.99 E38.2566
G1 X26.15 Y59.51 E44.2711
G1 X26.01 Y60.52 E44.3229
G1 X25.56 Y61.86 E44.3946
G1 X24.76 Y62.99 E44.4649
G1 X24.53 Y63.20 E44.4807
G1 X23.30 Y64.07 E44.5571
G1 X22.90 Y64.24 E44.5792
G1 X21.92 Y64.51 E44.6308
G1 X21.12 Y64.61 E44.6717
G1 X.40 Y64.61 E45.7234
G1 X-.98 Y64.38 E45.7944
G1 X-2.32 Y63.78 E45.8689
G1 X-2.87 Y63.37 E45.9037
G1 X-3.64 Y62.52 E45.9619
G1 X-3.90 Y62.08 E45.9879
G1 X-4.37 Y62.11 E46.0118
G1 X-20.79 Y62.11 E46.8452
G1 X-22.46 Y61.94 E46.9304
G1 X-22.75 Y61.85 E46.9458
G1 X-23.72 Y61.39 E47.0003
G1 X-24.76 Y60.55 E47.0681
G1 X-25.41 Y59.57 E47.1278
G1 X-25.88 Y58.31 E47.1961
G1 X-25.96 Y57.48 E47.2384
G1 X-25.96 Y-60.01 E53.2016
G1 E51.9016 F1800
G1 X-25.56 Y-60.01 F4200
G1 E53.2016 F1800
G1 X-25.56 Y-60.01 F4200
G1 X-25.33 Y-61.29 E53.2676 F1200
G1 X-25.26 Y-61.47 E53.2774
G1 X-24.84 Y-62.27 E53.3232
G1 X-24.05 Y-63.23 E53.3863
G1 X-23.90 Y-63.33 E53.3955
G1 X-22.81 Y-63.93 E53.4586
G1 X-21.52 Y-64.20 E53.5255
G1 X-20.00 Y-64.19 E53.6027
G1 X-5.22 Y-64.19 E54.3528
G1 X-4.68 Y-64.21 E54.3803
G1 X-3.13 Y-64.13 E54.4590
G1 X-2.11 Y-63.75 E54.5143
G1 X-1.81 Y-63.56 E54.5323
G1 X-1.41 Y-63.80 E54.5560
G1 X-.34 Y-64.10 E54.6124
G1 X.41 Y-64.19 E54.6507
G1 X21.08 Y-64.19 E55.6998
G1 X22.35 Y-63.97 E55.7653
G1 X23.62 Y-63.40 E55.8359
G1 X23.95 Y-63.17 E55.8563
G1 X24.76 Y-62.33 E55.9155
G1 X25.46 Y-61.09 E55.9878
G1 X25.69 Y-60.10 E56.0394
G1 X25.75 Y-58.99 E56.0958
G1 X25.75 Y59.51 E62.1103
G1 X25.62 Y60.44 E62.1580
G1 X25.20 Y61.68 E62.2244
G1 X24.45 Y62.74 E62.2903
G1 X24.30 Y62.87 E62.3004
G1 X23.12 Y63.71 E62.3739
G1 X22.79 Y63.86 E62.3923
G1 X21.88 Y64.12 E62.4403
G1 X21.10 Y64.21 E62.4802
G1 X.40 Y64.21 E63.5308
G1 X-.89 Y63.99 E63.5972
G1 X-2.15 Y63.42 E63.6674
G1 X-2.58 Y63.09 E63.6949
G1 X-3.31 Y62.30 E63.7495
G1 X-3.46 Y62.06 E63.7639
G1 X-3.67 Y61.67 E63.7864
G1 X-4.37 Y61.71 E63.8220
G1 X-20.79 Y61.71 E64.6554
G1 X-22.39 Y61.55 E64.7370
G1 X-22.58 Y61.49 E64.7471
G1 X-23.50 Y61.05 E64.7988
G1 X-24.47 Y60.27 E64.8620
G1 X-25.06 Y59.38 E64.9162
G1 X-25.49 Y58.20 E64.9800
G1 X-25.56 Y57.48 E65.0167
G1 X-25.56 Y-60.01 E70.9799
G1 E69.6799 F1800
G1 X-25.16 Y-60.01 F4200
G1 E70.9799 F1800
G1 X-25.16 Y-60.01 F4200
G1 X-24.94 Y-61.18 E71.0403 F1200
G1 X-24.91 Y-61.29 E71.0461
G1 X-24.53 Y-62.02 E71.0879
G1 X-23.78 Y-62.93 E71.1477
G1 X-23.71 Y-62.98 E71.1521
G1 X-22.69 Y-63.55 E71.2114
G1 X-21.50 Y-63.80 E71.2731
G1 X-20.00 Y-63.79 E71.3492
G1 X-5.21 Y-63.79 E72.0999
G1 X-4.66 Y-63.81 E72.1278
G1 X-3.20 Y-63.73 E72.2021
G1 X-2.30 Y-63.40 E72.2507
G1 X-1.81 Y-63.08 E72.2804
G1 X-1.30 Y-63.41 E72.3112
G1 X-.30 Y-63.71 E72.3642
G1 X.43 Y-63.79 E72.4015
G1 X21.08 Y-63.79 E73.4496
G1 X22.26 Y-63.59 E73.5103
G1 X23.46 Y-63.04 E73.5773
G1 X23.66 Y-62.89 E73.5900
G1 X24.43 Y-62.10 E73.6460
G1 X25.10 Y-60.92 E73.7149
G1 X25.29 Y-60.04 E73.7606
G1 X25.35 Y-58.99 E73.8140
G1 X25.35 Y59.51 E79.8284
G1 X25.24 Y60.31 E79.8694
G1 X24.84 Y61.50 E79.9331
G1 X24.14 Y62.48 E79.9943
G1 X24.07 Y62.55 E79.9993
G1 X22.93 Y63.36 E80.0703
G1 X22.68 Y63.47 E80.0841
G1 X21.83 Y63.72 E80.1291
G1 X21.08 Y63.81 E80.1674
G1 X.40 Y63.81 E81.2170
G1 X-.79 Y63.60 E81.2784
G1 X-1.98 Y63.05 E81.3449
G1 X-2.29 Y62.82 E81.3645
G1 X-2.97 Y62.08 E81.4155
G1 X-3.11 Y61.88 E81.4279
G1 X-3.45 Y61.22 E81.4656
G1 X-3.81 Y61.29 E81.4842
G1 X-4.38 Y61.31 E81.5131
G1 X-20.79 Y61.31 E82.3460
G1 X-22.32 Y61.15 E82.4241
G1 X-22.41 Y61.12 E82.4289
G1 X-23.27 Y60.73 E82.4768
G1 X-24.17 Y60.00 E82.5357
G1 X-24.71 Y59.18 E82.5855
G1 X-25.11 Y58.09 E82.6444
G1 X-25.16 Y57.48 E82.6755
G1 X-25.16 Y-60.01 E88.6387
G1 E87.3387 F1800
G1 X-24.76 Y-60.01 F4200
G1 E88.6387 F1800
G1 X-24.76 Y-60.01 F4200
G1 X-24.55 Y-61.11 E88.6955 F1200
G1 X-24.22 Y-61.76 E88.7325
G1 X-23.51 Y-62.64 E88.7899
G1 X-22.57 Y-63.17 E88.8447
G1 X-21.47 Y-63.40 E88.9017
G1 X-20.00 Y-63.39 E88.9763
G1 X-5.19 Y-63.39 E89.7280
G1 X-4.65 Y-63.41 E89.7555
G1 X-3.28 Y-63.34 E89.8251
G1 X-2.49 Y-63.05 E89.8678
G1 X-1.80 Y-62.60 E89.9096
G1 X-1.15 Y-63.04 E89.9494
G1 X-.25 Y-63.31 E89.9971
G1 X.45 Y-63.39 E90.0329
G1 X21.08 Y-63.39 E91.0800
G1 X22.16 Y-63.20 E91.1356
G1 X23.26 Y-62.69 E91.1972
G1 X23.38 Y-62.61 E91.2045
G1 X24.10 Y-61.88 E91.2565
G1 X24.73 Y-60.78 E91.3209
G1 X24.90 Y-60.02 E91.3604
G1 X24.95 Y-58.99 E91.4127
G1 X24.95 Y59.51 E97.4272
G1 X24.86 Y60.19 E97.4620
G1 X24.48 Y61.33 E97.5230
G1 X23.83 Y62.22 E97.5789
G1 X22.76 Y62.99 E97.6458
G1 X22.56 Y63.09 E97.6572
G1 X21.78 Y63.32 E97.6985
G1 X21.06 Y63.41 E97.7353
G1 X.40 Y63.41 E98.7839
G1 X-.69 Y63.21 E98.8401
G1 X-1.79 Y62.70 E98.9017
G1 X-2.00 Y62.54 E98.9151
G1 X-2.64 Y61.86 E98.9625
G1 X-2.75 Y61.69 E98.9727
G1 X-3.23 Y60.77 E99.0254
G1 X-3.82 Y60.89 E99.0560
G1 X-4.40 Y60.91 E99.0854
G1 X-20.79 Y60.91 E99.9173
G1 X-22.25 Y60.76 E99.9918
G1 X-23.03 Y60.41 E100.0352
G1 X-23.88 Y59.73 E100.0904
G1 X-24.34 Y59.01 E100.1338
G1 X-24.72 Y58.00 E100.1886
G1 X-24.76 Y57.48 E100.2150
G1 X-24.76 Y-60.01 E106.1782
G1 E104.8782 F1800
G1 X-24.36 Y-60.01 F4200
G1 E106.1782 F1800
G1 X-24.36 Y-60.01 F4200
G1 X-24.16 Y-61.00 E106.2295 F1200
G1 X-23.89 Y-61.54 E106.2601
G1 X-23.26 Y-62.33 E106.3114
G1 X-22.43 Y-62.80 E106.3598
G1 X-21.42 Y-63.01 E106.4122
G1 X-20.01 Y-62.99 E106.4838
G1 X-5.18 Y-62.99 E107.2365
G1 X-4.67 Y-63.01 E107.2624
G1 X-3.35 Y-62.95 E107.3294
G1 X-2.69 Y-62.70 E107.3652
G1 X-1.96 Y-62.22 E107.4096
G1 X-1.85 Y-62.09 E107.4182
G1 X-1.00 Y-62.67 E107.4705
G1 X-.20 Y-62.91 E107.5128
G1 X.46 Y-62.99 E107.5466
G1 X21.08 Y-62.99 E108.5932
G1 X22.06 Y-62.81 E108.6437
G1 X23.09 Y-62.33 E108.7014
G1 X23.76 Y-61.66 E108.7495
G1 X24.35 Y-60.63 E108.8098
G1 X24.50 Y-60.00 E108.8426
G1 X24.55 Y-58.99 E108.8939
G1 X24.55 Y59.51 E114.9084
G1 X24.47 Y60.07 E114.9371
G1 X24.14 Y61.13 E114.9935
G1 X23.55 Y61.94 E115.0443
G1 X22.55 Y62.65 E115.1066
G1 X22.44 Y62.71 E115.1129
G1 X21.73 Y62.93 E115.1507
G1 X21.04 Y63.01 E115.1859
G1 X.40 Y63.01 E116.2335
G1 X-.59 Y62.83 E116.2846
G1 X-1.62 Y62.34 E116.3425
G1 X-1.71 Y62.27 E116.3482
G1 X-2.31 Y61.64 E116.3924
G1 X-2.40 Y61.51 E116.4004
G1 X-2.92 Y60.51 E116.4576
G1 X-2.99 Y60.31 E116.4684
G1 X-3.84 Y60.49 E116.5125
G1 X-4.41 Y60.51 E116.5414
G1 X-20.79 Y60.51 E117.3728
G1 X-22.15 Y60.37 E117.4422
G1 X-22.82 Y60.07 E117.4795
G1 X-23.59 Y59.45 E117.5296
G1 X-23.98 Y58.85 E117.5659
G1 X-24.32 Y57.94 E117.6152
G1 X-24.36 Y57.48 E117.6387
G1 X-24.36 Y-60.01 E123.6019
G1 E122.3019 F1800
G1 X-23.96 Y-60.01 F4200
G1 E123.6019 F1800
G1 X-23.96 Y-60.01 F4200
G1 X-23.78 Y-60.89 E123.6475 F1200
G1 X-23.58 Y-61.29 E123.6702
G1 X-23.00 Y-62.02 E123.7175
G1 X-22.28 Y-62.42 E123.7593
G1 X-21.39 Y-62.61 E123.8055
G1 X-20.01 Y-62.59 E123.8755
G1 X-5.16 Y-62.59 E124.6292
G1 X-4.68 Y-62.61 E124.6536
G1 X-3.43 Y-62.55 E124.7171
G1 X-2.90 Y-62.36 E124.7457
G1 X-2.24 Y-61.94 E124.7854
G1 X-1.89 Y-61.49 E124.8144
G1 X-1.74 Y-61.67 E124.8262
G1 X-.84 Y-62.30 E124.8820
G1 X-.16 Y-62.51 E124.9181
G1 X.48 Y-62.59 E124.9509
G1 X21.08 Y-62.59 E125.9964
G1 X21.93 Y-62.43 E126.0403
G1 X22.88 Y-61.99 E126.0935
G1 X23.46 Y-61.40 E126.1355
G1 X23.99 Y-60.46 E126.1902
G1 X24.10 Y-59.97 E126.2157
G1 X24.15 Y-58.99 E126.2655
G1 X24.15 Y59.51 E132.2800
G1 X24.09 Y59.95 E132.3025
G1 X23.79 Y60.93 E132.3545
G1 X23.26 Y61.67 E132.4007
G1 X22.32 Y62.33 E132.4590
G1 X21.69 Y62.53 E132.4926
G1 X21.02 Y62.61 E132.5268
G1 X.40 Y62.61 E133.5734
G1 X-.49 Y62.44 E133.6194
G1 X-1.42 Y61.99 E133.6718
G1 X-1.98 Y61.40 E133.7131
G1 X-2.04 Y61.32 E133.7182
G1 X-2.54 Y60.38 E133.7722
G1 X-2.61 Y59.99 E133.7923
G1 X-2.63 Y59.69 E133.8076
G1 X-3.07 Y59.92 E133.8328
G1 X-3.85 Y60.09 E133.8733
G1 X-4.42 Y60.11 E133.9023
G1 X-20.79 Y60.11 E134.7331
G1 X-22.06 Y59.98 E134.7979
G1 X-22.60 Y59.73 E134.8281
G1 X-23.30 Y59.18 E134.8733
G1 X-23.62 Y58.68 E134.9034
G1 X-23.93 Y57.88 E134.9470
G1 X-23.96 Y57.48 E134.9674
G1 X-23.96 Y-60.01 E140.9305
G1 E139.6306 F1800
G1 X-23.56 Y-60.01 F4200
G1 E140.9305 F1800
G1 X-23.56 Y-60.01 F4200
G1 X-23.39 Y-60.80 E140.9716 F1200
G1 X-23.26 Y-61.04 E140.9854
G1 X-22.75 Y-61.71 E141.0282
G1 X-22.14 Y-62.05 E141.0636
G1 X-21.37 Y-62.21 E141.1035
G1 X-20.02 Y-62.19 E141.1720
G1 X-5.14 Y-62.19 E141.9273
G1 X-4.70 Y-62.21 E141.9497
G1 X-3.50 Y-62.16 E142.0106
G1 X-3.11 Y-62.02 E142.0316
G1 X-2.51 Y-61.65 E142.0674
G1 X-1.95 Y-60.90 E142.1149
G1 X-1.91 Y-60.77 E142.1218
G1 X-1.51 Y-61.34 E142.1572
G1 X-.68 Y-61.94 E142.2091
G1 X-.11 Y-62.12 E142.2395
G1 X.50 Y-62.19 E142.2707
G1 X21.08 Y-62.19 E143.3152
G1 X21.80 Y-62.05 E143.3524
G1 X22.66 Y-61.66 E143.4003
G1 X23.15 Y-61.15 E143.4362
G1 X23.63 Y-60.29 E143.4862
G1 X23.70 Y-59.95 E143.5038
G1 X23.75 Y-58.99 E143.5526
G1 X23.75 Y59.51 E149.5671
G1 X23.71 Y59.83 E149.5835
G1 X23.44 Y60.74 E149.6316
G1 X22.97 Y61.39 E149.6724
G1 X22.12 Y61.98 E149.7249
G1 X21.60 Y62.14 E149.7525
G1 X21.00 Y62.21 E149.7831
G1 X.40 Y62.21 E150.8287
G1 X-.36 Y62.06 E150.8680
G1 X-1.20 Y61.66 E150.9152
G1 X-1.69 Y61.13 E150.9519
G1 X-2.16 Y60.26 E151.0021
G1 X-2.21 Y59.97 E151.0170
G1 X-2.27 Y58.81 E151.0759
G1 X-2.59 Y59.21 E151.1020
G1 X-3.16 Y59.53 E151.1351
G1 X-3.86 Y59.69 E151.1715
G1 X-4.44 Y59.71 E151.2010
G1 X-20.79 Y59.71 E152.0308
G1 X-21.96 Y59.59 E152.0905
G1 X-22.38 Y59.40 E152.1139
G1 X-22.99 Y58.92 E152.1533
G1 X-23.25 Y58.53 E152.1771
G1 X-23.53 Y57.81 E152.2163
G1 X-23.56 Y57.48 E152.2331
G1 X-23.56 Y-60.01 E158.1963
G1 E156.8963 F1800
G1 X-23.16 Y-60.01 F4200
G1 E158.1963 F1800
G1 X-23.16 Y-60.01 F4200
G1 X-23.00 Y-60.69 E158.2318 F1200
G1 X-22.94 Y-60.80 E158.2382
G1 X-22.48 Y-61.41 E158.2769
G1 X-22.00 Y-61.68 E158.3049
G1 X-21.34 Y-61.81 E158.3390
G1 X-20.03 Y-61.79 E158.4055
G1 X-5.12 Y-61.79 E159.1623
G1 X-4.71 Y-61.81 E159.1831
G1 X-3.57 Y-61.77 E159.2410
G1 X-3.32 Y-61.68 E159.2545
G1 X-2.79 Y-61.36 E159.2859
G1 X-2.30 Y-60.71 E159.3272
G1 X-2.15 Y-60.06 E159.3611
G1 X-2.15 Y-60.04 E159.3621
G1 X-2.15 Y57.49 E165.3273
G1 X-2.31 Y58.17 E165.3628
G1 X-2.36 Y58.28 E165.3689
G1 X-2.82 Y58.89 E165.4077
G1 X-3.28 Y59.15 E165.4345
G1 X-3.88 Y59.29 E165.4658
G1 X-4.45 Y59.31 E165.4947
G1 X-20.79 Y59.31 E166.3241
G1 X-21.87 Y59.20 E166.3791
G1 X-22.14 Y59.08 E166.3941
G1 X-22.68 Y58.66 E166.4289
G1 X-22.88 Y58.38 E166.4463
G1 X-23.14 Y57.74 E166.4814
G1 X-23.16 Y57.48 E166.4946
G1 X-23.16 Y-60.01 E172.4578
G1 E171.1578 F1800
G1 X-22.76 Y-60.01 F4200
G1 E172.4578 F1800
G1 X-22.76 Y-60.01 F4200
G1 X-22.62 Y-60.56 E172.4866 F1200
G1 X-22.22 Y-61.11 E172.5212
G1 X-21.88 Y-61.29 E172.5407
G1 X-21.35 Y-61.41 E172.5683
G1 X-20.03 Y-61.39 E172.6353
G1 X-5.12 Y-61.39 E173.3920
G1 X-4.73 Y-61.41 E173.4119
G1 X-3.64 Y-61.37 E173.4672
G1 X-3.52 Y-61.33 E173.4736
G1 X-3.08 Y-61.08 E173.4993
G1 X-2.66 Y-60.54 E173.5340
G1 X-2.55 Y-60.05 E173.5595
G1 X-2.55 Y-60.02 E173.5610
G1 X-2.55 Y57.49 E179.5253
G1 X-2.69 Y58.04 E179.5541
G1 X-3.09 Y58.59 E179.5886
G1 X-3.40 Y58.77 E179.6068
G1 X-3.89 Y58.89 E179.6324
G1 X-4.47 Y58.91 E179.6618
G1 X-20.79 Y58.91 E180.4902
G1 X-21.77 Y58.82 E180.5401
G1 X-21.90 Y58.76 E180.5474
G1 X-22.37 Y58.42 E180.5768
G1 X-22.51 Y58.22 E180.5892
G1 X-22.75 Y57.67 E180.6197
G1 X-22.76 Y57.48 E180.6293
G1 X-22.76 Y-60.01 E186.5925
G1 E185.2925 F1800
G1 X-22.36 Y-60.01 F4200
G1 E186.5925 F1800
G1 X-22.36 Y-60.01 F4200
G1 X-22.26 Y-60.41 E186.6134 F1200
G1 X-21.94 Y-60.82 E186.6398
G1 X-21.79 Y-60.90 E186.6485
G1 X-21.35 Y-61.01 E186.6715
G1 X-20.04 Y-60.99 E186.7380
G1 X-5.12 Y-60.99 E187.4952
G1 X-4.74 Y-61.01 E187.5145
G1 X-3.71 Y-60.98 E187.5669
G1 X-3.34 Y-60.78 E187.5882
G1 X-3.01 Y-60.35 E187.6157
G1 X-2.95 Y-60.02 E187.6327
G1 X-2.95 Y57.49 E193.5970
G1 X-3.05 Y57.89 E193.6179
G1 X-3.37 Y58.30 E193.6443
G1 X-3.51 Y58.38 E193.6525
G1 X-3.91 Y58.49 E193.6735
G1 X-4.48 Y58.51 E193.7025
G1 X-20.79 Y58.51 E194.5303
G1 X-21.68 Y58.43 E194.5756
G1 X-22.05 Y58.17 E194.5986
G1 X-22.15 Y58.05 E194.6065
G1 X-22.35 Y57.61 E194.6310
G1 X-22.36 Y57.48 E194.6377
G1 X-22.36 Y-60.01 E200.6009
G1 E199.3009 F1800
G1 X-21.96 Y-60.01 F4200
G1 E200.6009 F1800
G1 X-21.96 Y-60.01 F4200
G1 X-21.90 Y-60.22 E200.6120 F1200
G1 X-21.68 Y-60.52 E200.6308
G1 X-21.36 Y-60.61 E200.6477
G1 X-20.11 Y-60.60 E200.7112
G1 X-20.08 Y-60.59 E200.7128
G1 X-5.12 Y-60.59 E201.4721
G1 X-4.75 Y-60.61 E201.4909
G1 X-3.80 Y-60.59 E201.5391
G1 X-3.59 Y-60.46 E201.5516
G1 X-3.37 Y-60.16 E201.5705
G1 X-3.35 Y-60.02 E201.5777
G1 X-3.35 Y57.49 E207.5419
G1 X-3.41 Y57.70 E207.5530
G1 X-3.63 Y58.00 E207.5719
G1 X-3.92 Y58.09 E207.5873
G1 X-4.49 Y58.11 E207.6162
G1 X-20.79 Y58.11 E208.4435
G1 X-21.56 Y58.04 E208.4828
G1 X-21.79 Y57.87 E208.4973
G1 X-21.96 Y57.53 E208.5166
G1 X-21.96 Y57.48 E208.5191
G1 X-21.96 Y-60.01 E214.4823
G1 E213.1823 F1800
G1 X-21.56 Y-60.01 F4200
G1 E214.4823 F1800
G1 X-21.56 Y-60.01 F4200
G1 X-21.45 Y-60.19 E214.4930 F1200
G1 X-21.36 Y-60.21 E214.4977
G1 X-20.17 Y-60.20 E214.5581
G1 X-20.14 Y-60.19 E214.5597
G1 X-5.11 Y-60.19 E215.3226
G1 X-4.75 Y-60.21 E215.3409
G1 X-3.89 Y-60.20 E215.3845
G1 X-3.75 Y-60.04 E215.3953
G1 X-3.75 Y-60.02 E215.3963
G1 X-3.75 Y57.49 E221.3606
G1 X-3.86 Y57.67 E221.3713
G1 X-3.93 Y57.69 E221.3750
G1 X-4.51 Y57.71 E221.4044
G1 X-20.79 Y57.71 E222.2307
G1 X-21.45 Y57.66 E222.2643
G1 X-21.56 Y57.48 E222.2750
