;generated by ffslicer 1.14.0 09/15/18 13:50:21
;start gcode
M118 X28.53 Y65.59 Z23.00 T0
M140 S50 T0
M104 S215 T0
M104 S0 T1
M107
G90
G28
M132 X Y Z A B
G1 Z50.00 F400
G161 X Y F3300
M7 T0
M6 T0
M651
M907 X100 Y100 Z40 A80 B20
M108 T0
G1 X-2.92 Y-65.51 F4800
;preExtrude:0.20
;preExtruder0
M108 T0
G1 Z.20 F400
G1 X-2.92 Y-65.51 F4800
G1 X-1.83 Y-65.11 E.1684 F1200
G1 X-1.51 Y-65.27 E.2203
G1 X-.79 Y-65.44 E.3275
G1 X.42 Y-65.59 E.5043
G1 X22.55 Y-65.59 E3.7135
G1 X24.12 Y-65.33 E3.9443
G1 X25.67 Y-64.64 E4.1903
G1 X26.28 Y-64.21 E4.2985
G1 X27.29 Y-63.14 E4.5119
G1 X28.15 Y-61.61 E4.7664
G1 X28.46 Y-60.31 E4.9602
G1 X28.53 Y-59.01 E5.1490
G1 X28.53 Y25.49 E17.4027
;raft
;layer:0.28
;support-start
;brim
M106
G1 E16.1027 F1800
G1 Z.28 F400
G1 X-27.34 Y-60.01 F4200
G1 E17.4027 F1800
G1 X-27.34 Y-60.01 F4200
G1 X-27.09 Y-61.39 E17.4739 F1200
G1 X-27.00 Y-61.65 E17.4879
G1 X-26.53 Y-62.53 E17.5385
G1 X-25.70 Y-63.52 E17.6041
G1 X-25.47 Y-63.68 E17.6183
G1 X-24.33 Y-64.31 E17.6844
G1 X-22.96 Y-64.60 E17.7555
G1 X-21.37 Y-64.59 E17.8362
G1 X-19.91 Y-64.59 E17.9103
G1 X-9.91 Y-64.59 E18.4178
G1 X-5.31 Y-64.59 E18.6513
G1 X-4.76 Y-64.61 E18.6792
G1 X-3.12 Y-64.52 E18.7626
G1 X-2.02 Y-64.12 E18.8220
G1 X-1.82 Y-63.99 E18.8341
G1 X-1.16 Y-64.33 E18.8718
G1 X-.61 Y-64.46 E18.9005
G1 X-.12 Y-64.52 E18.9255
G1 X.48 Y-64.59 E18.9562
G1 X9.88 Y-64.59 E19.4333
G1 X19.88 Y-64.59 E19.9409
G1 X22.46 Y-64.59 E20.0718
G1 X23.83 Y-64.36 E20.1423
G1 X25.17 Y-63.77 E20.2166
G1 X25.62 Y-63.45 E20.2446
G1 X26.48 Y-62.54 E20.3082
G1 X27.21 Y-61.24 E20.3839
G1 X27.47 Y-60.16 E20.4402
G1 X27.53 Y-58.99 E20.4997
G1 X27.53 Y59.51 E26.5142
G1 X27.39 Y60.52 E26.5659
G1 X26.94 Y61.86 E26.6377
G1 X26.14 Y62.99 E26.7079
G1 X25.91 Y63.20 E26.7237
G1 X24.68 Y64.07 E26.8002
G1 X24.27 Y64.24 E26.8227
G1 X23.29 Y64.52 E26.8745
G1 X22.48 Y64.61 E26.9158
G1 X.40 Y64.61 E28.0365
G1 X-.98 Y64.38 E28.1075
G1 X-2.32 Y63.78 E28.1820
G1 X-2.87 Y63.37 E28.2169
G1 X-3.64 Y62.52 E28.2751
G1 X-3.90 Y62.09 E28.3006
G1 X-4.42 Y62.11 E28.3270
G1 X-22.17 Y62.11 E29.2279
G1 X-23.84 Y61.94 E29.3131
G1 X-24.13 Y61.85 E29.3285
G1 X-25.10 Y61.39 E29.3830
G1 X-26.14 Y60.55 E29.4508
G1 X-26.79 Y59.57 E29.5105
G1 X-27.26 Y58.31 E29.5788
G1 X-27.34 Y57.48 E29.6211
G1 X-27.34 Y-60.01 E35.5843
G1 E34.2843 F1800
G1 X-27.34 Y-60.01 F4200
G1 E35.5843 F1800
G1 X-27.34 Y-60.01 F4200
G1 X-27.09 Y-61.39 E35.6555 F1200
G1 X-27.00 Y-61.65 E35.6694
G1 X-26.53 Y-62.53 E35.7201
G1 X-25.70 Y-63.52 E35.7857
G1 X-25.47 Y-63.68 E35.7999
G1 X-24.33 Y-64.31 E35.8660
G1 X-22.96 Y-64.60 E35.9371
G1 X-21.37 Y-64.59 E36.0178
G1 X-5.31 Y-64.59 E36.8329
G1 X-4.76 Y-64.61 E36.8608
G1 X-3.12 Y-64.52 E36.9442
G1 X-2.02 Y-64.12 E37.0036
G1 X-1.82 Y-63.99 E37.0157
G1 X-1.16 Y-64.33 E37.0534
G1 X-.61 Y-64.46 E37.0821
G1 X.48 Y-64.59 E37.1378
G1 X22.46 Y-64.59 E38.2534
G1 X23.83 Y-64.36 E38.3239
G1 X25.17 Y-63.77 E38.3982
G1 X25.62 Y-63.45 E38.4262
G1 X26.48 Y-62.54 E38.4898
G1 X27.21 Y-61.24 E38.5654
G1 X27.47 Y-60.16 E38.6218
G1 X27.53 Y-58.99 E38.6813
G1 X27.53 Y59.51 E44.6957
G1 X27.39 Y60.52 E44.7475
G1 X26.94 Y61.86 E44.8192
G1 X26.14 Y62.99 E44.8895
G1 X25.91 Y63.20 E44.9053
G1 X24.68 Y64.07 E44.9818
G1 X24.27 Y64.24 E45.0043
G1 X23.29 Y64.52 E45.0560
G1 X22.48 Y64.61 E45.0974
G1 X.40 Y64.61 E46.2181
G1 X-.98 Y64.38 E46.2891
G1 X-2.32 Y63.78 E46.3636
G1 X-2.87 Y63.37 E46.3984
G1 X-3.64 Y62.52 E46.4566
G1 X-3.90 Y62.09 E46.4821
G1 X-4.42 Y62.11 E46.5086
G1 X-22.17 Y62.11 E47.4095
G1 X-23.84 Y61.94 E47.4946
G1 X-24.13 Y61.85 E47.5101
G1 X-25.10 Y61.39 E47.5646
G1 X-26.14 Y60.55 E47.6324
G1 X-26.79 Y59.57 E47.6921
G1 X-27.26 Y58.31 E47.7603
G1 X-27.34 Y57.48 E47.8027
G1 X-27.34 Y-60.01 E53.7659
G1 E52.4659 F1800
G1 X-26.94 Y-60.01 F4200
G1 E53.7659 F1800
G1 X-26.94 Y-60.01 F4200
G1 X-26.71 Y-61.29 E53.8319 F1200
G1 X-26.64 Y-61.47 E53.8417
G1 X-26.22 Y-62.27 E53.8875
G1 X-25.43 Y-63.23 E53.9506
G1 X-25.28 Y-63.33 E53.9598
G1 X-24.19 Y-63.93 E54.0229
G1 X-22.90 Y-64.20 E54.0898
G1 X-21.38 Y-64.19 E54.1670
G1 X-5.29 Y-64.19 E54.9836
G1 X-4.75 Y-64.21 E55.0111
G1 X-3.20 Y-64.13 E55.0898
G1 X-2.18 Y-63.75 E55.1451
G1 X-1.83 Y-63.53 E55.1661
G1 X-1.07 Y-63.94 E55.2099
G1 X-.57 Y-64.06 E55.2360
G1 X.50 Y-64.19 E55.2907
G1 X22.46 Y-64.19 E56.4053
G1 X23.73 Y-63.97 E56.4707
G1 X25.00 Y-63.40 E56.5413
G1 X25.33 Y-63.17 E56.5617
G1 X26.14 Y-62.33 E56.6210
G1 X26.84 Y-61.09 E56.6932
G1 X27.07 Y-60.10 E56.7448
G1 X27.13 Y-58.99 E56.8013
G1 X27.13 Y59.51 E62.8157
G1 X27.00 Y60.44 E62.8634
G1 X26.58 Y61.68 E62.9298
G1 X25.83 Y62.74 E62.9957
G1 X25.68 Y62.87 E63.0058
G1 X24.50 Y63.71 E63.0793
G1 X24.16 Y63.86 E63.0982
G1 X23.25 Y64.12 E63.1462
G1 X22.46 Y64.21 E63.1866
G1 X.40 Y64.21 E64.3062
G1 X-.89 Y63.99 E64.3727
G1 X-2.15 Y63.42 E64.4428
G1 X-2.58 Y63.09 E64.4704
G1 X-3.31 Y62.30 E64.5250
G1 X-3.46 Y62.06 E64.5393
G1 X-3.67 Y61.66 E64.5622
G1 X-3.82 Y61.69 E64.5700
G1 X-4.43 Y61.71 E64.6010
G1 X-22.17 Y61.71 E65.5014
G1 X-23.77 Y61.55 E65.5830
G1 X-23.96 Y61.49 E65.5931
G1 X-24.88 Y61.05 E65.6449
G1 X-25.85 Y60.27 E65.7080
G1 X-26.44 Y59.38 E65.7622
G1 X-26.87 Y58.20 E65.8260
G1 X-26.94 Y57.48 E65.8627
G1 X-26.94 Y-60.01 E71.8259
G1 E70.5259 F1800
G1 X-26.54 Y-60.01 F4200
G1 E71.8259 F1800
G1 X-26.54 Y-60.01 F4200
G1 X-26.32 Y-61.18 E71.8863 F1200
G1 X-26.29 Y-61.29 E71.8921
G1 X-25.91 Y-62.02 E71.9339
G1 X-25.16 Y-62.93 E71.9937
G1 X-25.09 Y-62.98 E71.9981
G1 X-24.07 Y-63.55 E72.0574
G1 X-22.88 Y-63.80 E72.1191
G1 X-21.38 Y-63.79 E72.1953
G1 X-5.28 Y-63.79 E73.0124
G1 X-4.73 Y-63.81 E73.0403
G1 X-3.27 Y-63.73 E73.1146
G1 X-2.37 Y-63.40 E73.1632
G1 X-1.85 Y-63.06 E73.1947
G1 X-.96 Y-63.56 E73.2466
G1 X-.52 Y-63.66 E73.2695
G1 X.52 Y-63.79 E73.3227
G1 X22.46 Y-63.79 E74.4362
G1 X23.64 Y-63.59 E74.4970
G1 X24.84 Y-63.04 E74.5640
G1 X25.04 Y-62.89 E74.5766
G1 X25.81 Y-62.10 E74.6326
G1 X26.48 Y-60.92 E74.7015
G1 X26.67 Y-60.04 E74.7472
G1 X26.73 Y-58.99 E74.8006
G1 X26.73 Y59.51 E80.8151
G1 X26.62 Y60.31 E80.8560
G1 X26.22 Y61.50 E80.9197
G1 X25.52 Y62.48 E80.9809
G1 X25.45 Y62.55 E80.9859
G1 X24.31 Y63.36 E81.0569
G1 X24.05 Y63.48 E81.0714
G1 X23.20 Y63.72 E81.1162
G1 X22.45 Y63.81 E81.1546
G1 X.40 Y63.81 E82.2737
G1 X-.79 Y63.60 E82.3350
G1 X-1.98 Y63.05 E82.4016
G1 X-2.29 Y62.82 E82.4212
G1 X-2.97 Y62.08 E82.4722
G1 X-3.11 Y61.88 E82.4846
G1 X-3.45 Y61.21 E82.5227
G1 X-3.83 Y61.29 E82.5424
G1 X-4.45 Y61.31 E82.5739
G1 X-22.17 Y61.31 E83.4733
G1 X-23.70 Y61.15 E83.5514
G1 X-23.79 Y61.12 E83.5562
G1 X-24.65 Y60.73 E83.6041
G1 X-25.55 Y60.00 E83.6629
G1 X-26.09 Y59.18 E83.7128
G1 X-26.49 Y58.09 E83.7717
G1 X-26.54 Y57.48 E83.8028
G1 X-26.54 Y-60.01 E89.7660
G1 E88.4660 F1800
G1 X-26.14 Y-60.01 F4200
G1 E89.7660 F1800
G1 X-26.14 Y-60.01 F4200
G1 X-25.93 Y-61.11 E89.8228 F1200
G1 X-25.60 Y-61.76 E89.8598
G1 X-24.89 Y-62.64 E89.9172
G1 X-23.95 Y-63.17 E89.9720
G1 X-22.85 Y-63.40 E90.0290
G1 X-21.38 Y-63.39 E90.1036
G1 X-5.26 Y-63.39 E90.9218
G1 X-4.72 Y-63.41 E90.9492
G1 X-3.35 Y-63.34 E91.0188
G1 X-2.56 Y-63.05 E91.0615
G1 X-1.87 Y-62.60 E91.1034
G1 X-.84 Y-63.17 E91.1631
G1 X-.47 Y-63.27 E91.1826
G1 X.54 Y-63.39 E91.2342
G1 X22.46 Y-63.39 E92.3467
G1 X23.54 Y-63.20 E92.4024
G1 X24.64 Y-62.69 E92.4639
G1 X24.76 Y-62.61 E92.4712
G1 X25.48 Y-61.88 E92.5233
G1 X26.11 Y-60.78 E92.5876
G1 X26.28 Y-60.02 E92.6271
G1 X26.33 Y-58.99 E92.6795
G1 X26.33 Y59.51 E98.6939
G1 X26.24 Y60.19 E98.7288
G1 X25.86 Y61.33 E98.7897
G1 X25.21 Y62.22 E98.8457
G1 X24.14 Y63.00 E98.9129
G1 X23.94 Y63.09 E98.9240
G1 X23.15 Y63.32 E98.9658
G1 X22.43 Y63.41 E99.0026
G1 X.40 Y63.41 E100.1207
G1 X-.69 Y63.21 E100.1770
G1 X-1.79 Y62.70 E100.2385
G1 X-2.00 Y62.54 E100.2519
G1 X-2.64 Y61.86 E100.2993
G1 X-2.75 Y61.69 E100.3096
G1 X-3.24 Y60.76 E100.3629
G1 X-3.85 Y60.89 E100.3946
G1 X-4.46 Y60.91 E100.4256
G1 X-22.17 Y60.91 E101.3245
G1 X-23.63 Y60.76 E101.3989
G1 X-24.41 Y60.41 E101.4423
G1 X-25.26 Y59.73 E101.4976
G1 X-25.72 Y59.01 E101.5410
G1 X-26.10 Y58.00 E101.5957
G1 X-26.14 Y57.48 E101.6222
G1 X-26.14 Y-60.01 E107.5854
G1 E106.2854 F1800
G1 X-25.74 Y-60.01 F4200
G1 E107.5854 F1800
G1 X-25.74 Y-60.01 F4200
G1 X-25.54 Y-61.00 E107.6367 F1200
G1 X-25.27 Y-61.54 E107.6673
G1 X-24.64 Y-62.33 E107.7186
G1 X-23.81 Y-62.80 E107.7670
G1 X-22.80 Y-63.01 E107.8194
G1 X-21.39 Y-62.99 E107.8909
G1 X-5.25 Y-62.99 E108.7101
G1 X-4.73 Y-63.01 E108.7365
G1 X-3.42 Y-62.95 E108.8031
G1 X-2.75 Y-62.70 E108.8394
G1 X-2.02 Y-62.22 E108.8837
G1 X-1.89 Y-62.05 E108.8946
G1 X-1.65 Y-62.26 E108.9108
G1 X-.69 Y-62.80 E108.9667
G1 X-.42 Y-62.87 E108.9808
G1 X.56 Y-62.99 E109.0310
G1 X22.46 Y-62.99 E110.1425
G1 X23.44 Y-62.81 E110.1931
G1 X24.47 Y-62.33 E110.2507
G1 X25.14 Y-61.66 E110.2988
G1 X25.73 Y-60.63 E110.3591
G1 X25.88 Y-60.00 E110.3919
G1 X25.93 Y-58.99 E110.4433
G1 X25.93 Y59.51 E116.4577
G1 X25.85 Y60.07 E116.4864
G1 X25.52 Y61.13 E116.5428
G1 X24.93 Y61.94 E116.5936
G1 X23.93 Y62.65 E116.6559
G1 X23.82 Y62.71 E116.6622
G1 X23.11 Y62.93 E116.7000
G1 X22.41 Y63.01 E116.7357
G1 X.40 Y63.01 E117.8529
G1 X-.59 Y62.83 E117.9039
G1 X-1.62 Y62.34 E117.9618
G1 X-1.71 Y62.27 E117.9676
G1 X-2.31 Y61.64 E118.0118
G1 X-2.40 Y61.51 E118.0198
G1 X-2.92 Y60.51 E118.0770
G1 X-2.98 Y60.29 E118.0886
G1 X-3.86 Y60.49 E118.1344
G1 X-4.48 Y60.51 E118.1658
G1 X-22.17 Y60.51 E119.0637
G1 X-23.53 Y60.37 E119.1331
G1 X-24.20 Y60.07 E119.1703
G1 X-24.97 Y59.45 E119.2205
G1 X-25.36 Y58.85 E119.2568
G1 X-25.70 Y57.94 E119.3061
G1 X-25.74 Y57.48 E119.3296
G1 X-25.74 Y-60.01 E125.2928
G1 E123.9928 F1800
G1 X-25.34 Y-60.01 F4200
G1 E125.2928 F1800
G1 X-25.34 Y-60.01 F4200
G1 X-25.16 Y-60.89 E125.3384 F1200
G1 X-24.96 Y-61.29 E125.3611
G1 X-24.38 Y-62.02 E125.4084
G1 X-23.66 Y-62.42 E125.4502
G1 X-22.77 Y-62.61 E125.4964
G1 X-21.39 Y-62.59 E125.5664
G1 X-5.23 Y-62.59 E126.3866
G1 X-4.75 Y-62.61 E126.4110
G1 X-3.50 Y-62.55 E126.4745
G1 X-2.97 Y-62.36 E126.5031
G1 X-2.31 Y-61.94 E126.5428
G1 X-1.94 Y-61.45 E126.5740
G1 X-1.45 Y-61.91 E126.6081
G1 X-.54 Y-62.43 E126.6613
G1 X-.37 Y-62.47 E126.6701
G1 X.56 Y-62.59 E126.7177
G1 X22.46 Y-62.59 E127.8293
G1 X23.31 Y-62.43 E127.8732
G1 X24.26 Y-61.99 E127.9263
G1 X24.84 Y-61.40 E127.9683
G1 X25.37 Y-60.46 E128.0231
G1 X25.48 Y-59.97 E128.0486
G1 X25.53 Y-58.99 E128.0984
G1 X25.53 Y59.51 E134.1128
G1 X25.47 Y59.95 E134.1354
G1 X25.17 Y60.93 E134.1874
G1 X24.64 Y61.67 E134.2336
G1 X23.70 Y62.33 E134.2919
G1 X23.06 Y62.53 E134.3259
G1 X22.39 Y62.61 E134.3602
G1 X.40 Y62.61 E135.4763
G1 X-.49 Y62.44 E135.5223
G1 X-1.42 Y61.99 E135.5747
G1 X-1.98 Y61.40 E135.6160
G1 X-2.04 Y61.32 E135.6211
G1 X-2.54 Y60.38 E135.6751
G1 X-2.61 Y59.99 E135.6952
G1 X-2.63 Y59.65 E135.7125
G1 X-3.14 Y59.92 E135.7418
G1 X-3.92 Y60.09 E135.7823
G1 X-4.49 Y60.11 E135.8112
G1 X-22.17 Y60.11 E136.7086
G1 X-23.44 Y59.98 E136.7734
G1 X-23.98 Y59.73 E136.8036
G1 X-24.68 Y59.18 E136.8488
G1 X-25.00 Y58.68 E136.8789
G1 X-25.31 Y57.88 E136.9224
G1 X-25.34 Y57.48 E136.9428
G1 X-25.34 Y-60.01 E142.9060
G1 E141.6060 F1800
G1 X-24.94 Y-60.01 F4200
G1 E142.9060 F1800
G1 X-24.94 Y-60.01 F4200
G1 X-24.77 Y-60.80 E142.9470 F1200
G1 X-24.64 Y-61.04 E142.9609
G1 X-24.13 Y-61.71 E143.0036
G1 X-23.52 Y-62.05 E143.0391
G1 X-22.75 Y-62.21 E143.0790
G1 X-21.40 Y-62.19 E143.1475
G1 X-5.21 Y-62.19 E143.9692
G1 X-4.77 Y-62.21 E143.9916
G1 X-3.57 Y-62.16 E144.0525
G1 X-3.18 Y-62.02 E144.0736
G1 X-2.58 Y-61.65 E144.1094
G1 X-2.02 Y-60.90 E144.1569
G1 X-1.95 Y-60.65 E144.1700
G1 X-1.75 Y-61.08 E144.1941
G1 X-1.25 Y-61.57 E144.2296
G1 X-.42 Y-62.05 E144.2783
G1 X-.32 Y-62.08 E144.2836
G1 X.56 Y-62.19 E144.3286
G1 X22.46 Y-62.19 E145.4401
G1 X23.18 Y-62.05 E145.4773
G1 X24.04 Y-61.66 E145.5253
G1 X24.53 Y-61.15 E145.5612
G1 X25.01 Y-60.29 E145.6112
G1 X25.08 Y-59.95 E145.6288
G1 X25.13 Y-58.99 E145.6776
G1 X25.13 Y59.51 E151.6920
G1 X25.09 Y59.83 E151.7084
G1 X24.82 Y60.74 E151.7566
G1 X24.35 Y61.39 E151.7973
G1 X23.50 Y61.98 E151.8498
G1 X22.97 Y62.14 E151.8779
G1 X22.37 Y62.21 E151.9086
G1 X.40 Y62.21 E153.0237
G1 X-.36 Y62.06 E153.0630
G1 X-1.20 Y61.66 E153.1102
G1 X-1.69 Y61.13 E153.1468
G1 X-2.16 Y60.26 E153.1970
G1 X-2.21 Y59.97 E153.2120
G1 X-2.27 Y58.99 E153.2618
G1 X-2.27 Y58.72 E153.2755
G1 X-2.66 Y59.21 E153.3073
G1 X-3.23 Y59.53 E153.3404
G1 X-3.93 Y59.69 E153.3769
G1 X-4.51 Y59.71 E153.4063
G1 X-22.17 Y59.71 E154.3027
G1 X-23.34 Y59.59 E154.3624
G1 X-23.76 Y59.40 E154.3857
G1 X-24.37 Y58.92 E154.4251
G1 X-24.63 Y58.53 E154.4489
G1 X-24.91 Y57.81 E154.4881
G1 X-24.94 Y57.48 E154.5050
G1 X-24.94 Y-60.01 E160.4681
G1 E159.1681 F1800
G1 X-24.54 Y-60.01 F4200
G1 E160.4681 F1800
G1 X-24.54 Y-60.01 F4200
G1 X-24.38 Y-60.69 E160.5036 F1200
G1 X-24.32 Y-60.80 E160.5100
G1 X-23.86 Y-61.41 E160.5487
G1 X-23.38 Y-61.68 E160.5767
G1 X-22.72 Y-61.81 E160.6108
G1 X-21.41 Y-61.79 E160.6773
G1 X-5.19 Y-61.79 E161.5006
G1 X-4.78 Y-61.81 E161.5214
G1 X-3.64 Y-61.77 E161.5793
G1 X-3.39 Y-61.68 E161.5928
G1 X-2.86 Y-61.36 E161.6242
G1 X-2.37 Y-60.71 E161.6655
G1 X-2.22 Y-60.06 E161.6994
G1 X-2.22 Y-60.04 E161.7004
G1 X-2.22 Y57.49 E167.6656
G1 X-2.37 Y58.17 E167.7010
G1 X-2.43 Y58.28 E167.7073
G1 X-2.89 Y58.89 E167.7461
G1 X-3.35 Y59.15 E167.7729
G1 X-3.95 Y59.29 E167.8042
G1 X-4.52 Y59.31 E167.8332
G1 X-22.17 Y59.31 E168.7290
G1 X-23.25 Y59.20 E168.7841
G1 X-23.52 Y59.08 E168.7991
G1 X-24.06 Y58.66 E168.8338
G1 X-24.26 Y58.38 E168.8513
G1 X-24.52 Y57.74 E168.8863
G1 X-24.54 Y57.48 E168.8996
G1 X-24.54 Y-60.01 E174.8628
G1 E173.5628 F1800
G1 X-24.14 Y-60.01 F4200
G1 E174.8628 F1800
G1 X-24.14 Y-60.01 F4200
G1 X-24.00 Y-60.56 E174.8916 F1200
G1 X-23.60 Y-61.11 E174.9261
G1 X-23.26 Y-61.29 E174.9456
G1 X-22.73 Y-61.41 E174.9732
G1 X-21.41 Y-61.39 E175.0402
G1 X-5.19 Y-61.39 E175.8634
G1 X-4.80 Y-61.41 E175.8833
G1 X-3.71 Y-61.37 E175.9386
G1 X-3.59 Y-61.33 E175.9451
G1 X-3.14 Y-61.08 E175.9712
G1 X-2.73 Y-60.54 E176.0056
G1 X-2.62 Y-60.05 E176.0311
G1 X-2.62 Y-60.02 E176.0326
G1 X-2.62 Y57.49 E181.9968
G1 X-2.75 Y58.04 E182.0255
G1 X-3.16 Y58.59 E182.0603
G1 X-3.47 Y58.77 E182.0785
G1 X-3.96 Y58.89 E182.1041
G1 X-4.54 Y58.91 E182.1336
G1 X-22.17 Y58.91 E183.0284
G1 X-23.15 Y58.82 E183.0783
G1 X-23.28 Y58.76 E183.0856
G1 X-23.75 Y58.42 E183.1150
G1 X-23.89 Y58.22 E183.1274
G1 X-24.13 Y57.67 E183.1579
G1 X-24.14 Y57.48 E183.1675
G1 X-24.14 Y-60.01 E189.1307
G1 E187.8307 F1800
G1 X-23.74 Y-60.01 F4200
G1 E189.1307 F1800
G1 X-23.74 Y-60.01 F4200
G1 X-23.64 Y-60.41 E189.1516 F1200
G1 X-23.32 Y-60.82 E189.1780
G1 X-23.17 Y-60.90 E189.1867
G1 X-22.73 Y-61.01 E189.2097
G1 X-21.42 Y-60.99 E189.2762
G1 X-5.19 Y-60.99 E190.0999
G1 X-4.81 Y-61.01 E190.1192
G1 X-3.78 Y-60.98 E190.1715
G1 X-3.41 Y-60.78 E190.1929
G1 X-3.08 Y-60.35 E190.2204
G1 X-3.02 Y-60.02 E190.2374
G1 X-3.02 Y57.49 E196.2017
G1 X-3.12 Y57.89 E196.2226
G1 X-3.44 Y58.30 E196.2490
G1 X-3.58 Y58.38 E196.2571
G1 X-3.97 Y58.49 E196.2777
G1 X-4.55 Y58.51 E196.3072
G1 X-22.17 Y58.51 E197.2015
G1 X-23.06 Y58.43 E197.2468
G1 X-23.43 Y58.17 E197.2698
G1 X-23.53 Y58.05 E197.2777
G1 X-23.73 Y57.61 E197.3022
G1 X-23.74 Y57.48 E197.3088
G1 X-23.74 Y-60.01 E203.2721
G1 E201.9721 F1800
G1 X-23.34 Y-60.01 F4200
G1 E203.2721 F1800
G1 X-23.34 Y-60.01 F4200
G1 X-23.28 Y-60.22 E203.2831 F1200
G1 X-23.06 Y-60.52 E203.3020
G1 X-22.74 Y-60.61 E203.3189
G1 X-21.49 Y-60.60 E203.3823
G1 X-21.46 Y-60.59 E203.3839
G1 X-5.19 Y-60.59 E204.2097
G1 X-4.82 Y-60.61 E204.2285
G1 X-3.87 Y-60.59 E204.2768
G1 X-3.66 Y-60.46 E204.2893
G1 X-3.44 Y-60.16 E204.3082
G1 X-3.42 Y-60.02 E204.3153
G1 X-3.42 Y57.49 E210.2796
G1 X-3.48 Y57.70 E210.2906
G1 X-3.70 Y58.00 E210.3095
G1 X-3.99 Y58.09 E210.3249
G1 X-4.56 Y58.11 E210.3539
G1 X-22.17 Y58.11 E211.2477
G1 X-22.94 Y58.04 E211.2869
G1 X-23.17 Y57.87 E211.3014
G1 X-23.34 Y57.53 E211.3208
G1 X-23.34 Y57.48 E211.3233
G1 X-23.34 Y-60.01 E217.2865
G1 E215.9865 F1800
G1 X-22.94 Y-60.01 F4200
G1 E217.2865 F1800
G1 X-22.94 Y-60.01 F4200
G1 X-22.83 Y-60.19 E217.2972 F1200
G1 X-22.74 Y-60.21 E217.3019
G1 X-21.55 Y-60.20 E217.3623
G1 X-21.52 Y-60.19 E217.3639
G1 X-5.18 Y-60.19 E218.1932
G1 X-4.82 Y-60.21 E218.2115
G1 X-3.96 Y-60.20 E218.2552
G1 X-3.82 Y-60.04 E218.2660
G1 X-3.82 Y-60.02 E218.2670
G1 X-3.82 Y57.49 E224.2312
G1 X-3.93 Y57.67 E224.2419
